<?xml version="1.0" encoding="UTF-8"?>
<map version="1.10" tiledversion="1.12.1" orientation="orthogonal" renderorder="right-down" width="18" height="20" tilewidth="32" tileheight="32" infinite="0" nextlayerid="4" nextobjectid="4">
 <tileset firstgid="1" source="FieldsTileset.tsx"/>
 <tileset firstgid="65" name="Tower" tilewidth="63" tileheight="64" tilecount="2" columns="0">
  <grid orientation="orthogonal" width="1" height="1"/>
  <tile id="14">
   <image source="../images/PlaceForTower1.png" width="62" height="61"/>
  </tile>
  <tile id="15">
   <image source="../images/PlaceForTower2.png" width="63" height="64"/>
  </tile>
 </tileset>
 <layer id="1" name="bottom" width="18" height="20">
  <data encoding="csv">
38,38,38,38,38,38,38,38,38,38,38,38,38,38,38,38,38,38,
38,38,38,38,38,38,38,38,38,38,38,38,38,38,38,38,38,38,
38,38,10,34,34,34,34,34,38,38,10,34,34,34,34,12,38,38,
38,38,62,1,3,3,1,17,38,38,62,1,63,63,62,17,38,38,
38,38,62,25,38,38,62,17,38,38,62,17,38,38,62,17,38,38,
38,38,21,25,38,38,62,17,38,38,62,17,38,38,62,17,38,38,
38,38,21,25,38,38,62,17,38,38,62,17,38,38,62,17,38,38,
38,38,21,25,38,38,62,17,38,38,62,17,38,38,62,17,38,38,
38,38,21,25,38,38,62,17,38,38,62,17,38,38,62,17,38,38,
38,38,21,25,38,38,62,17,38,38,62,17,38,38,62,17,38,38,
38,38,21,25,38,38,62,17,38,38,62,17,38,38,62,17,38,38,
38,38,21,25,38,38,62,17,38,38,62,17,38,38,62,17,38,38,
38,38,54,25,38,38,62,17,38,38,62,17,38,38,62,17,38,38,
38,38,21,25,38,38,62,17,38,38,62,17,38,38,62,17,38,38,
38,38,21,25,38,38,62,17,38,38,62,17,38,38,62,17,38,38,
38,38,62,25,38,38,62,17,38,38,62,17,38,38,62,17,38,38,
38,38,21,25,38,38,62,17,38,38,62,17,38,38,62,17,38,38,
35,35,1,25,38,38,62,1,55,34,34,17,38,38,62,1,34,34,
52,52,52,28,38,38,26,63,63,63,63,28,38,38,26,63,63,63,
38,38,38,38,38,38,38,38,38,38,38,38,38,38,38,38,38,38
</data>
 </layer>
 <layer id="3" name="Top" width="18" height="20">
  <data encoding="csv">
38,0,0,0,0,0,0,0,0,0,0,0,0,0,0,0,0,0,
38,0,10,34,34,34,34,12,0,0,10,34,34,34,34,12,0,0,
38,38,21,1,4,4,1,53,0,0,21,1,4,4,1,53,0,0,
0,38,0,0,38,38,0,25,0,0,0,0,38,38,0,25,0,0,
0,38,0,0,79,0,0,25,0,0,0,25,79,0,0,25,0,0,
0,38,0,0,0,0,0,25,0,0,0,25,0,0,0,25,0,0,
0,0,0,0,0,0,0,25,0,0,0,25,38,38,0,25,0,0,
79,0,0,0,38,0,0,25,79,0,0,25,0,38,0,25,79,0,
0,0,0,0,38,0,0,25,0,0,0,25,0,0,0,25,0,0,
0,0,0,25,38,0,0,25,0,0,0,25,0,0,0,25,0,0,
0,0,0,25,0,0,0,25,0,0,0,25,0,0,0,25,0,0,
0,0,0,25,79,0,0,25,0,0,0,25,79,0,0,25,0,0,
0,0,0,25,0,0,0,25,0,0,0,25,0,0,0,25,0,0,
0,0,0,25,38,38,0,25,0,0,0,25,0,0,0,25,0,0,
79,0,0,0,38,38,0,25,79,0,0,25,0,0,0,25,79,0,
0,0,0,0,0,0,0,25,0,0,0,25,0,0,0,25,0,0,
0,0,0,0,0,0,0,25,0,0,0,25,0,0,0,25,0,0,
0,0,0,0,0,0,0,0,0,0,0,25,0,0,0,0,0,0,
0,0,0,0,79,0,0,0,0,0,0,0,79,0,0,0,0,0,
0,0,0,0,0,0,0,0,0,0,0,0,0,0,0,0,0,0
</data>
 </layer>
</map>
